brand-assets/oxc/oxc-logo-color-light.svg

<svg width="255" height="47" viewBox="0 0 255 47" fill="none" xmlns="http://www.w3.org/2000/svg">
<path d="M29.0166 0C48.081 0 58.0977 8.01378 58.0977 23.3945C58.0976 38.7751 48.0809 46.7881 29.0166 46.7881C9.95249 46.788 9.91815e-05 38.7751 0 23.3945C0 8.01385 9.95239 7.3095e-05 29.0166 0ZM142.522 0C159.583 4.14084e-05 169.923 6.72096 169.923 19.5811V19.7109H153.509V19.5811C153.509 14.0236 150.083 11.1153 142.522 11.1152C133.927 11.1152 129.855 14.9933 129.855 23.3945C129.856 31.7956 133.927 35.6084 142.522 35.6084C150.083 35.6084 153.509 32.7001 153.509 27.207V27.1426H169.923V27.207C169.923 39.9381 159.906 46.788 142.522 46.7881C123.781 46.7881 114.023 38.7105 114.022 23.3945C114.022 8.0784 123.781 0 142.522 0ZM86.0371 14.541L95.7314 0.775391H112.792L96.5713 22.877L113.374 46.0127H95.6016L85.0684 31.2139L74.7275 46.0127H57.667L74.4697 22.748L58.1836 0.775391H76.1494L86.0371 14.541ZM29.0166 11.1152C20.0339 11.1153 15.833 14.9287 15.833 23.3945C15.8331 31.8602 20.034 35.6083 29.0166 35.6084C37.9994 35.6084 42.2001 31.7956 42.2002 23.3945C42.2002 14.9287 37.9995 11.1152 29.0166 11.1152Z" fill="white"/>
<path d="M223.349 7.55707C223.349 8.80648 224.361 9.81894 225.611 9.81894H234.193C235.201 9.81894 235.705 11.0382 234.992 11.7491L224.01 22.731C223.586 23.1554 223.347 23.7306 223.347 24.3316V28.0863C223.347 29.6481 224.895 30.7316 226.265 29.9863C227.661 29.228 228.96 28.3103 230.134 27.2591C230.6 26.8433 231.315 26.839 231.756 27.2828L239.755 35.2812C240.196 35.7228 240.199 36.4401 239.742 36.8667C233.676 42.5429 225.522 46.0197 216.559 46.0197C207.595 46.0197 199.442 42.5429 193.376 36.8667C192.919 36.4401 192.921 35.7228 193.363 35.2812L201.361 27.2828C201.803 26.8412 202.518 26.8433 202.983 27.2591C204.157 28.3103 205.456 29.228 206.852 29.9863C208.224 30.7316 209.771 29.6481 209.771 28.0863V24.3316C209.771 23.7306 209.532 23.1554 209.107 22.731L198.125 11.7491C197.412 11.036 197.917 9.81894 198.925 9.81894H207.507C208.756 9.81894 209.769 8.80648 209.769 7.55707V1.90022C209.769 1.27552 210.275 0.769287 210.9 0.769287H222.211C222.836 0.769287 223.342 1.27552 223.342 1.90022V7.55707H223.349Z" fill="#00F7F1"/>
<mask id="mask0_2002_16528" style="mask-type:alpha" maskUnits="userSpaceOnUse" x="193" y="0" width="48" height="47">
<path d="M223.349 7.55609C223.349 8.80551 224.361 9.81797 225.611 9.81797H234.193C235.201 9.81797 235.705 11.0372 234.992 11.7481L224.01 22.73C223.586 23.1544 223.347 23.7296 223.347 24.3306V28.0853C223.347 29.6471 224.895 30.7306 226.265 29.9853C227.661 29.227 228.96 28.3093 230.134 27.2581C230.6 26.8424 231.315 26.838 231.756 27.2818L239.755 35.2802C240.196 35.7218 240.199 36.4392 239.742 36.8657C233.676 42.5419 225.522 46.0187 216.559 46.0187C207.595 46.0187 199.442 42.5419 193.376 36.8657C192.919 36.4392 192.921 35.7218 193.363 35.2802L201.361 27.2818C201.803 26.8402 202.518 26.8424 202.983 27.2581C204.157 28.3093 205.456 29.227 206.852 29.9853C208.224 30.7306 209.771 29.6471 209.771 28.0853V24.3306C209.771 23.7296 209.532 23.1544 209.107 22.73L198.125 11.7481C197.412 11.0351 197.917 9.81797 198.925 9.81797H207.507C208.756 9.81797 209.769 8.80551 209.769 7.55609V1.89925C209.769 1.27454 210.275 0.768311 210.9 0.768311H222.211C222.836 0.768311 223.342 1.27454 223.342 1.89925V7.55609H223.349Z" fill="#D9D9D9"/>
</mask>
<g mask="url(#mask0_2002_16528)">
<g filter="url(#filter0_f_2002_16528)">
<ellipse cx="4.61781" cy="21.5008" rx="4.61781" ry="21.5008" transform="matrix(0 -1 -1 0 237.931 51.3621)" fill="#93FFFC"/>
</g>
<g filter="url(#filter1_f_2002_16528)">
<ellipse cx="4.61781" cy="21.5008" rx="4.61781" ry="21.5008" transform="matrix(-0.369097 -0.929391 -0.929391 0.369097 256.302 41.1357)" fill="#00FF79"/>
</g>
<g filter="url(#filter2_f_2002_16528)">
<ellipse cx="198.234" cy="44.7799" rx="4.61781" ry="21.5008" transform="rotate(-68.3401 198.234 44.7799)" fill="#0060FF"/>
</g>
<g filter="url(#filter3_f_2002_16528)">
<ellipse cx="224.96" cy="29.6604" rx="3.71516" ry="6.26821" transform="rotate(-135.197 224.96 29.6604)" fill="#93FFFC"/>
</g>
<g filter="url(#filter4_f_2002_16528)">
<ellipse cx="226.875" cy="26.2138" rx="3.71516" ry="6.26821" transform="rotate(-135.197 226.875 26.2138)" fill="#0060FF"/>
</g>
<g filter="url(#filter5_f_2002_16528)">
<ellipse cx="226.491" cy="7.06539" rx="3.71516" ry="6.26821" transform="rotate(-135.197 226.491 7.06539)" fill="#93FFFC"/>
</g>
<g filter="url(#filter6_f_2002_16528)">
<ellipse cx="227.64" cy="5.53389" rx="3.71516" ry="6.26821" transform="rotate(-135.197 227.64 5.53389)" fill="#0060FF"/>
</g>
<g filter="url(#filter7_f_2002_16528)">
<ellipse cx="3.71516" cy="6.26821" rx="3.71516" ry="6.26821" transform="matrix(0.709532 -0.704673 -0.704673 -0.709532 210.273 37.4917)" fill="#93FFFC"/>
</g>
<g filter="url(#filter8_f_2002_16528)">
<ellipse cx="3.71516" cy="6.26821" rx="3.71516" ry="6.26821" transform="matrix(0.709532 -0.704673 -0.704673 -0.709532 207.592 34.0452)" fill="#0060FF"/>
</g>
<g filter="url(#filter9_f_2002_16528)">
<ellipse cx="3.71516" cy="6.26821" rx="3.71516" ry="6.26821" transform="matrix(0.709532 -0.704673 -0.704673 -0.709532 207.592 14.1309)" fill="#93FFFC"/>
</g>
<g filter="url(#filter10_f_2002_16528)">
<ellipse cx="3.71516" cy="6.26821" rx="3.71516" ry="6.26821" transform="matrix(0.709532 -0.704673 -0.704673 -0.709532 207.21 11.8333)" fill="#0060FF"/>
</g>
<g filter="url(#filter11_f_2002_16528)">
<ellipse cx="3.71516" cy="11.949" rx="3.71516" ry="11.949" transform="matrix(0.709532 -0.704673 -0.704673 -0.709532 207.976 29.4495)" fill="#0060FF"/>
</g>
<g filter="url(#filter12_f_2002_16528)">
<ellipse cx="232.027" cy="15.2895" rx="3.71516" ry="11.949" transform="rotate(-135.197 232.027 15.2895)" fill="#00FF79"/>
</g>
<g filter="url(#filter13_f_2002_16528)">
<ellipse cx="4.61781" cy="21.5008" rx="4.61781" ry="21.5008" transform="matrix(0 -1 -1 0 237.931 53.2769)" fill="#0060FF"/>
</g>
</g>
<path d="M185.351 0C176.153 13.1663 176.099 33.5748 185.351 46.7885H191.566C182.316 33.5748 182.37 13.1663 191.566 0H185.351Z" fill="white"/>
<path d="M247.773 0.000244141H241.558C250.756 13.1665 250.81 33.5751 241.558 46.7888H247.773C257.023 33.5751 256.969 13.1665 247.773 0.000244141Z" fill="white"/>
<defs>
<filter id="filter0_f_2002_16528" x="185.738" y="32.9354" width="61.3837" height="27.6178" filterUnits="userSpaceOnUse" color-interpolation-filters="sRGB">
<feFlood flood-opacity="0" result="BackgroundImageFix"/>
<feBlend mode="normal" in="SourceGraphic" in2="BackgroundImageFix" result="shape"/>
<feGaussianBlur stdDeviation="4.59556" result="effect1_foregroundBlur_2002_16528"/>
</filter>
<filter id="filter1_f_2002_16528" x="205.367" y="26.565" width="58.495" height="36.4298" filterUnits="userSpaceOnUse" color-interpolation-filters="sRGB">
<feFlood flood-opacity="0" result="BackgroundImageFix"/>
<feBlend mode="normal" in="SourceGraphic" in2="BackgroundImageFix" result="shape"/>
<feGaussianBlur stdDeviation="4.59556" result="effect1_foregroundBlur_2002_16528"/>
</filter>
<filter id="filter2_f_2002_16528" x="168.986" y="26.565" width="58.495" height="36.4298" filterUnits="userSpaceOnUse" color-interpolation-filters="sRGB">
<feFlood flood-opacity="0" result="BackgroundImageFix"/>
<feBlend mode="normal" in="SourceGraphic" in2="BackgroundImageFix" result="shape"/>
<feGaussianBlur stdDeviation="4.59556" result="effect1_foregroundBlur_2002_16528"/>
</filter>
<filter id="filter3_f_2002_16528" x="210.624" y="15.3077" width="28.6718" height="28.7055" filterUnits="userSpaceOnUse" color-interpolation-filters="sRGB">
<feFlood flood-opacity="0" result="BackgroundImageFix"/>
<feBlend mode="normal" in="SourceGraphic" in2="BackgroundImageFix" result="shape"/>
<feGaussianBlur stdDeviation="4.59556" result="effect1_foregroundBlur_2002_16528"/>
</filter>
<filter id="filter4_f_2002_16528" x="212.539" y="11.8611" width="28.6718" height="28.7055" filterUnits="userSpaceOnUse" color-interpolation-filters="sRGB">
<feFlood flood-opacity="0" result="BackgroundImageFix"/>
<feBlend mode="normal" in="SourceGraphic" in2="BackgroundImageFix" result="shape"/>
<feGaussianBlur stdDeviation="4.59556" result="effect1_foregroundBlur_2002_16528"/>
</filter>
<filter id="filter5_f_2002_16528" x="212.156" y="-7.2873" width="28.6718" height="28.7055" filterUnits="userSpaceOnUse" color-interpolation-filters="sRGB">
<feFlood flood-opacity="0" result="BackgroundImageFix"/>
<feBlend mode="normal" in="SourceGraphic" in2="BackgroundImageFix" result="shape"/>
<feGaussianBlur stdDeviation="4.59556" result="effect1_foregroundBlur_2002_16528"/>
</filter>
<filter id="filter6_f_2002_16528" x="213.304" y="-8.8188" width="28.6718" height="28.7055" filterUnits="userSpaceOnUse" color-interpolation-filters="sRGB">
<feFlood flood-opacity="0" result="BackgroundImageFix"/>
<feBlend mode="normal" in="SourceGraphic" in2="BackgroundImageFix" result="shape"/>
<feGaussianBlur stdDeviation="4.59556" result="effect1_foregroundBlur_2002_16528"/>
</filter>
<filter id="filter7_f_2002_16528" x="194.157" y="16.0735" width="28.6718" height="28.7055" filterUnits="userSpaceOnUse" color-interpolation-filters="sRGB">
<feFlood flood-opacity="0" result="BackgroundImageFix"/>
<feBlend mode="normal" in="SourceGraphic" in2="BackgroundImageFix" result="shape"/>
<feGaussianBlur stdDeviation="4.59556" result="effect1_foregroundBlur_2002_16528"/>
</filter>
<filter id="filter8_f_2002_16528" x="191.475" y="12.627" width="28.6718" height="28.7055" filterUnits="userSpaceOnUse" color-interpolation-filters="sRGB">
<feFlood flood-opacity="0" result="BackgroundImageFix"/>
<feBlend mode="normal" in="SourceGraphic" in2="BackgroundImageFix" result="shape"/>
<feGaussianBlur stdDeviation="4.59556" result="effect1_foregroundBlur_2002_16528"/>
</filter>
<filter id="filter9_f_2002_16528" x="191.475" y="-7.2873" width="28.6718" height="28.7055" filterUnits="userSpaceOnUse" color-interpolation-filters="sRGB">
<feFlood flood-opacity="0" result="BackgroundImageFix"/>
<feBlend mode="normal" in="SourceGraphic" in2="BackgroundImageFix" result="shape"/>
<feGaussianBlur stdDeviation="4.59556" result="effect1_foregroundBlur_2002_16528"/>
</filter>
<filter id="filter10_f_2002_16528" x="191.093" y="-9.58491" width="28.6718" height="28.7055" filterUnits="userSpaceOnUse" color-interpolation-filters="sRGB">
<feFlood flood-opacity="0" result="BackgroundImageFix"/>
<feBlend mode="normal" in="SourceGraphic" in2="BackgroundImageFix" result="shape"/>
<feGaussianBlur stdDeviation="4.59556" result="effect1_foregroundBlur_2002_16528"/>
</filter>
<filter id="filter11_f_2002_16528" x="184.175" y="0.28667" width="36.0336" height="36.1332" filterUnits="userSpaceOnUse" color-interpolation-filters="sRGB">
<feFlood flood-opacity="0" result="BackgroundImageFix"/>
<feBlend mode="normal" in="SourceGraphic" in2="BackgroundImageFix" result="shape"/>
<feGaussianBlur stdDeviation="4.59556" result="effect1_foregroundBlur_2002_16528"/>
</filter>
<filter id="filter12_f_2002_16528" x="214.01" y="-2.77705" width="36.0336" height="36.1332" filterUnits="userSpaceOnUse" color-interpolation-filters="sRGB">
<feFlood flood-opacity="0" result="BackgroundImageFix"/>
<feBlend mode="normal" in="SourceGraphic" in2="BackgroundImageFix" result="shape"/>
<feGaussianBlur stdDeviation="4.59556" result="effect1_foregroundBlur_2002_16528"/>
</filter>
<filter id="filter13_f_2002_16528" x="185.738" y="34.8501" width="61.3837" height="27.6178" filterUnits="userSpaceOnUse" color-interpolation-filters="sRGB">
<feFlood flood-opacity="0" result="BackgroundImageFix"/>
<feBlend mode="normal" in="SourceGraphic" in2="BackgroundImageFix" result="shape"/>
<feGaussianBlur stdDeviation="4.59556" result="effect1_foregroundBlur_2002_16528"/>
</filter>
</defs>
</svg>

<svg xmlns="http://www.w3.org/2000/svg" width="255" height="47" fill="none" viewBox="0 0 255 47"><path fill="#fff" d="M29.017 0c19.064 0 29.08 8.014 29.08 23.395s-10.016 23.393-29.08 23.393C9.952 46.788 0 38.775 0 23.395S9.952 0 29.017 0m113.505 0c17.061 0 27.401 6.721 27.401 19.581v.13h-16.414v-.13c0-5.557-3.426-8.466-10.987-8.466-8.595 0-12.667 3.878-12.667 12.28.001 8.4 4.072 12.213 12.667 12.213 7.561 0 10.987-2.908 10.987-8.401v-.064h16.414v.064c0 12.731-10.017 19.581-27.401 19.581-18.741 0-28.499-8.077-28.5-23.393 0-15.317 9.759-23.395 28.5-23.395M86.037 14.541 95.731.775h17.061l-16.22 22.102 16.802 23.136H95.602l-10.534-14.8-10.34 14.8H57.667L74.47 22.748 58.184.775h17.965zm-57.02-3.426c-8.983 0-13.184 3.814-13.184 12.28s4.201 12.213 13.184 12.213c8.982 0 13.183-3.812 13.183-12.213 0-8.466-4.2-12.28-13.183-12.28"/><path fill="#00f7f1" d="M223.349 7.557a2.26 2.26 0 0 0 2.262 2.262h8.582c1.008 0 1.512 1.22.799 1.93L224.01 22.731c-.424.424-.663 1-.663 1.6v3.755c0 1.562 1.548 2.646 2.918 1.9a20.4 20.4 0 0 0 3.869-2.727c.466-.416 1.181-.42 1.622.024l7.999 7.998a1.1 1.1 0 0 1-.013 1.586 33.82 33.82 0 0 1-23.183 9.153c-8.964 0-17.117-3.477-23.183-9.153a1.1 1.1 0 0 1-.013-1.586l7.998-7.998c.442-.442 1.157-.44 1.622-.024a20.4 20.4 0 0 0 3.869 2.727c1.372.746 2.919-.338 2.919-1.9v-3.754c0-.601-.239-1.177-.664-1.601l-10.982-10.982c-.713-.713-.208-1.93.8-1.93h8.582a2.26 2.26 0 0 0 2.262-2.262V1.9c0-.624.506-1.13 1.131-1.13h11.311a1.13 1.13 0 0 1 1.131 1.13v5.657z"/><mask id="a" width="48" height="47" x="193" y="0" maskUnits="userSpaceOnUse" style="mask-type:alpha"><path fill="#d9d9d9" d="M223.349 7.556a2.26 2.26 0 0 0 2.262 2.262h8.582c1.008 0 1.512 1.22.799 1.93L224.01 22.73c-.424.424-.663 1-.663 1.6v3.755c0 1.562 1.548 2.646 2.918 1.9a20.4 20.4 0 0 0 3.869-2.727c.466-.416 1.181-.42 1.622.024l7.999 7.998a1.1 1.1 0 0 1-.013 1.586 33.82 33.82 0 0 1-23.183 9.153c-8.964 0-17.117-3.477-23.183-9.153a1.1 1.1 0 0 1-.013-1.586l7.998-7.998c.442-.442 1.157-.44 1.622-.024a20.4 20.4 0 0 0 3.869 2.727c1.372.746 2.919-.338 2.919-1.9v-3.754c0-.601-.239-1.177-.664-1.601l-10.982-10.982c-.713-.713-.208-1.93.8-1.93h8.582a2.26 2.26 0 0 0 2.262-2.262V1.9c0-.624.506-1.13 1.131-1.13h11.311a1.13 1.13 0 0 1 1.131 1.13v5.657z"/></mask><g mask="url(#a)"><g filter="url(#b)"><ellipse cx="4.618" cy="21.501" fill="#93fffc" rx="4.618" ry="21.501" transform="matrix(0 -1 -1 0 237.931 51.362)"/></g><g filter="url(#c)"><ellipse cx="4.618" cy="21.501" fill="#00ff79" rx="4.618" ry="21.501" transform="rotate(68.34 97.852 209.349)scale(-1 1)"/></g><g filter="url(#d)"><ellipse cx="198.234" cy="44.78" fill="#0060ff" rx="4.618" ry="21.501" transform="rotate(-68.34 198.234 44.78)"/></g><g filter="url(#e)"><ellipse cx="224.96" cy="29.66" fill="#93fffc" rx="3.715" ry="6.268" transform="rotate(-135.197 224.96 29.66)"/></g><g filter="url(#f)"><ellipse cx="226.875" cy="26.214" fill="#0060ff" rx="3.715" ry="6.268" transform="rotate(-135.197 226.875 26.214)"/></g><g filter="url(#g)"><ellipse cx="226.491" cy="7.065" fill="#93fffc" rx="3.715" ry="6.268" transform="rotate(-135.197 226.491 7.065)"/></g><g filter="url(#h)"><ellipse cx="227.64" cy="5.534" fill="#0060ff" rx="3.715" ry="6.268" transform="rotate(-135.197 227.64 5.534)"/></g><g filter="url(#i)"><ellipse cx="3.715" cy="6.268" fill="#93fffc" rx="3.715" ry="6.268" transform="rotate(135.197 97.41 62.083)scale(-1 1)"/></g><g filter="url(#j)"><ellipse cx="3.715" cy="6.268" fill="#0060ff" rx="3.715" ry="6.268" transform="rotate(135.197 96.78 59.808)scale(-1 1)"/></g><g filter="url(#k)"><ellipse cx="3.715" cy="6.268" fill="#93fffc" rx="3.715" ry="6.268" transform="rotate(135.197 100.884 49.85)scale(-1 1)"/></g><g filter="url(#l)"><ellipse cx="3.715" cy="6.268" fill="#0060ff" rx="3.715" ry="6.268" transform="rotate(135.197 101.166 48.623)scale(-1 1)"/></g><g filter="url(#m)"><ellipse cx="3.715" cy="11.949" fill="#0060ff" rx="3.715" ry="11.949" transform="rotate(135.197 97.918 57.589)scale(-1 1)"/></g><g filter="url(#n)"><ellipse cx="232.027" cy="15.29" fill="#00ff79" rx="3.715" ry="11.949" transform="rotate(-135.197 232.027 15.29)"/></g><g filter="url(#o)"><ellipse cx="4.618" cy="21.501" fill="#0060ff" rx="4.618" ry="21.501" transform="matrix(0 -1 -1 0 237.931 53.277)"/></g></g><path fill="#fff" d="M185.351 0c-9.198 13.166-9.252 33.575 0 46.789h6.215c-9.25-13.214-9.196-33.623 0-46.789zm62.422 0h-6.215c9.198 13.167 9.252 33.575 0 46.789h6.215c9.25-13.214 9.196-33.622 0-46.789"/><defs><filter id="b" width="61.384" height="27.618" x="185.738" y="32.935" color-interpolation-filters="sRGB" filterUnits="userSpaceOnUse"><feFlood flood-opacity="0" result="BackgroundImageFix"/><feBlend in="SourceGraphic" in2="BackgroundImageFix" result="shape"/><feGaussianBlur result="effect1_foregroundBlur_2002_16528" stdDeviation="4.596"/></filter><filter id="c" width="58.495" height="36.43" x="205.367" y="26.565" color-interpolation-filters="sRGB" filterUnits="userSpaceOnUse"><feFlood flood-opacity="0" result="BackgroundImageFix"/><feBlend in="SourceGraphic" in2="BackgroundImageFix" result="shape"/><feGaussianBlur result="effect1_foregroundBlur_2002_16528" stdDeviation="4.596"/></filter><filter id="d" width="58.495" height="36.43" x="168.986" y="26.565" color-interpolation-filters="sRGB" filterUnits="userSpaceOnUse"><feFlood flood-opacity="0" result="BackgroundImageFix"/><feBlend in="SourceGraphic" in2="BackgroundImageFix" result="shape"/><feGaussianBlur result="effect1_foregroundBlur_2002_16528" stdDeviation="4.596"/></filter><filter id="e" width="28.672" height="28.706" x="210.624" y="15.308" color-interpolation-filters="sRGB" filterUnits="userSpaceOnUse"><feFlood flood-opacity="0" result="BackgroundImageFix"/><feBlend in="SourceGraphic" in2="BackgroundImageFix" result="shape"/><feGaussianBlur result="effect1_foregroundBlur_2002_16528" stdDeviation="4.596"/></filter><filter id="f" width="28.672" height="28.706" x="212.539" y="11.861" color-interpolation-filters="sRGB" filterUnits="userSpaceOnUse"><feFlood flood-opacity="0" result="BackgroundImageFix"/><feBlend in="SourceGraphic" in2="BackgroundImageFix" result="shape"/><feGaussianBlur result="effect1_foregroundBlur_2002_16528" stdDeviation="4.596"/></filter><filter id="g" width="28.672" height="28.706" x="212.156" y="-7.287" color-interpolation-filters="sRGB" filterUnits="userSpaceOnUse"><feFlood flood-opacity="0" result="BackgroundImageFix"/><feBlend in="SourceGraphic" in2="BackgroundImageFix" result="shape"/><feGaussianBlur result="effect1_foregroundBlur_2002_16528" stdDeviation="4.596"/></filter><filter id="h" width="28.672" height="28.706" x="213.304" y="-8.819" color-interpolation-filters="sRGB" filterUnits="userSpaceOnUse"><feFlood flood-opacity="0" result="BackgroundImageFix"/><feBlend in="SourceGraphic" in2="BackgroundImageFix" result="shape"/><feGaussianBlur result="effect1_foregroundBlur_2002_16528" stdDeviation="4.596"/></filter><filter id="i" width="28.672" height="28.706" x="194.157" y="16.073" color-interpolation-filters="sRGB" filterUnits="userSpaceOnUse"><feFlood flood-opacity="0" result="BackgroundImageFix"/><feBlend in="SourceGraphic" in2="BackgroundImageFix" result="shape"/><feGaussianBlur result="effect1_foregroundBlur_2002_16528" stdDeviation="4.596"/></filter><filter id="j" width="28.672" height="28.706" x="191.475" y="12.627" color-interpolation-filters="sRGB" filterUnits="userSpaceOnUse"><feFlood flood-opacity="0" result="BackgroundImageFix"/><feBlend in="SourceGraphic" in2="BackgroundImageFix" result="shape"/><feGaussianBlur result="effect1_foregroundBlur_2002_16528" stdDeviation="4.596"/></filter><filter id="k" width="28.672" height="28.706" x="191.475" y="-7.287" color-interpolation-filters="sRGB" filterUnits="userSpaceOnUse"><feFlood flood-opacity="0" result="BackgroundImageFix"/><feBlend in="SourceGraphic" in2="BackgroundImageFix" result="shape"/><feGaussianBlur result="effect1_foregroundBlur_2002_16528" stdDeviation="4.596"/></filter><filter id="l" width="28.672" height="28.706" x="191.093" y="-9.585" color-interpolation-filters="sRGB" filterUnits="userSpaceOnUse"><feFlood flood-opacity="0" result="BackgroundImageFix"/><feBlend in="SourceGraphic" in2="BackgroundImageFix" result="shape"/><feGaussianBlur result="effect1_foregroundBlur_2002_16528" stdDeviation="4.596"/></filter><filter id="m" width="36.034" height="36.133" x="184.175" y=".287" color-interpolation-filters="sRGB" filterUnits="userSpaceOnUse"><feFlood flood-opacity="0" result="BackgroundImageFix"/><feBlend in="SourceGraphic" in2="BackgroundImageFix" result="shape"/><feGaussianBlur result="effect1_foregroundBlur_2002_16528" stdDeviation="4.596"/></filter><filter id="n" width="36.034" height="36.133" x="214.01" y="-2.777" color-interpolation-filters="sRGB" filterUnits="userSpaceOnUse"><feFlood flood-opacity="0" result="BackgroundImageFix"/><feBlend in="SourceGraphic" in2="BackgroundImageFix" result="shape"/><feGaussianBlur result="effect1_foregroundBlur_2002_16528" stdDeviation="4.596"/></filter><filter id="o" width="61.384" height="27.618" x="185.738" y="34.85" color-interpolation-filters="sRGB" filterUnits="userSpaceOnUse"><feFlood flood-opacity="0" result="BackgroundImageFix"/><feBlend in="SourceGraphic" in2="BackgroundImageFix" result="shape"/><feGaussianBlur result="effect1_foregroundBlur_2002_16528" stdDeviation="4.596"/></filter></defs></svg>
